X: 1
T: Eagle's Whistle, The [1]
M: 2/4
L: 1/8
R: March
S: Joyce - Old Irish Folk Music and Songs  (1909)
Z: AK/Fiddler's Companion
K: G
G/ | BB d/B/A/G/ | BB d/B/A/G/ | BAA B/G/ | BAA B/G/ | BB d/B/A/G/ | BB d/B/A/G/ |
EG GG>A | EG/G/ (GG/) :| d/ | e/d/e/f/ ed/B/ | e/B/d/g/ dB/A/ | dg d/B/A/G/ | BAA B/G/ |
e/d/e/f/ ed/B/ | d/B/d/g/ dB/A/ | Bg/e/ d/B/A/G/ | EG/G/ (G G/) ||
